svg/home-simple-twotone.svg

<svg xmlns="http://www.w3.org/2000/svg" width="24" height="24" viewBox="0 0 24 24">
	<g fill="currentColor">
		<path d="M6 8l6 -5l6 5v12h-12v-12Z" fill-opacity="0">
			<animate attributeName="fill-opacity" values="0;0.3" begin="1.1s" dur="0.15s" fill="freeze" />
		</path>
	</g>
	<g fill="none" stroke="currentColor" stroke-width="2" stroke-linecap="round" stroke-linejoin="round">
		<path d="M5 21h14" stroke-dasharray="16" stroke-dashoffset="16">
			<animate attributeName="stroke-dashoffset" values="16;0" dur="0.2s" fill="freeze" />
		</path>
		<path d="M5 21v-13M19 21v-13" stroke-dasharray="16" stroke-dashoffset="16">
			<animate attributeName="stroke-dashoffset" values="16;0" begin="0.2s" dur="0.2s" fill="freeze" />
		</path>
		<path d="M2 10l10 -8l10 8" stroke-dasharray="32" stroke-dashoffset="32">
			<animate attributeName="stroke-dashoffset" values="32;0" begin="0.4s" dur="0.7s" fill="freeze" />
		</path>
	</g>
</svg>

<svg xmlns="http://www.w3.org/2000/svg" width="24" height="24" viewBox="0 0 24 24">
	<path d="M6 8L12 3L18 8V20H6V8Z" fill="currentColor" fill-opacity="0">
		<animate attributeName="fill-opacity" values="0;0.3" begin="0.9s" dur="0.15s" fill="freeze" />
	</path>
	<g fill="none" stroke="currentColor" stroke-width="2" stroke-linecap="round" stroke-linejoin="round">
		<path d="M5 21H19" stroke-dasharray="21" stroke-dashoffset="21">
			<animate attributeName="stroke-dashoffset" values="21;0" dur="0.2s" fill="freeze" />
		</path>
		<path d="M5 21V8M19 21V8" stroke-dasharray="15" stroke-dashoffset="15">
			<animate attributeName="stroke-dashoffset" values="15;0" begin="0.2s" dur="0.2s" fill="freeze" />
		</path>
		<path d="M2 10L12 2L22 10" stroke-dasharray="26" stroke-dashoffset="26">
			<animate attributeName="stroke-dashoffset" values="26;0" begin="0.5s" dur="0.4s" fill="freeze" />
		</path>
	</g>
</svg>
